icons/view-more/_.svg

<?xml version="1.0" encoding="UTF-8" standalone="no"?>
<svg
   height="24"
   id="svg7384"
   version="1.1"
   width="24"
   sodipodi:docname="_.svg"
   inkscape:version="1.1 (ce6663b3b7, 2021-05-25)"
   xmlns:inkscape="http://www.inkscape.org/namespaces/inkscape"
   xmlns:sodipodi="http://sodipodi.sourceforge.net/DTD/sodipodi-0.dtd"
   xmlns="http://www.w3.org/2000/svg"
   xmlns:svg="http://www.w3.org/2000/svg"
   xmlns:rdf="http://www.w3.org/1999/02/22-rdf-syntax-ns#"
   xmlns:cc="http://creativecommons.org/ns#"
   xmlns:dc="http://purl.org/dc/elements/1.1/">
  <sodipodi:namedview
     id="namedview23"
     pagecolor="#ffffff"
     bordercolor="#666666"
     borderopacity="1.0"
     inkscape:pageshadow="2"
     inkscape:pageopacity="0.0"
     inkscape:pagecheckerboard="0"
     showgrid="true"
     inkscape:snap-page="true"
     inkscape:zoom="28"
     inkscape:cx="11.196429"
     inkscape:cy="10.660714"
     inkscape:window-width="1920"
     inkscape:window-height="1016"
     inkscape:window-x="0"
     inkscape:window-y="27"
     inkscape:window-maximized="1"
     inkscape:current-layer="svg7384">
    <inkscape:grid
       type="xygrid"
       id="grid1024" />
  </sodipodi:namedview>
  <metadata
     id="metadata20854">
    <rdf:RDF>
      <cc:Work
         rdf:about="">
        <dc:format>image/svg+xml</dc:format>
        <dc:type
           rdf:resource="http://purl.org/dc/dcmitype/StillImage" />
      </cc:Work>
    </rdf:RDF>
  </metadata>
  <defs
     id="defs7386">
    <linearGradient
       id="linearGradient5606"
       inkscape:swatch="solid">
      <stop
         id="stop5608"
         offset="0"
         style="stop-color:#000000;stop-opacity:1;" />
    </linearGradient>
    <linearGradient
       id="linearGradient4526"
       inkscape:swatch="solid">
      <stop
         id="stop4528"
         offset="0"
         style="stop-color:#ffffff;stop-opacity:1;" />
    </linearGradient>
    <linearGradient
       id="linearGradient3600-4"
       inkscape:swatch="gradient">
      <stop
         id="stop3602-7"
         offset="0"
         style="stop-color:#f4f4f4;stop-opacity:1" />
      <stop
         id="stop3604-6"
         offset="1"
         style="stop-color:#dbdbdb;stop-opacity:1" />
    </linearGradient>
  </defs>
  <g
     id="layer9"
     label="status"
     style="display:inline;stroke-width:0.8"
     transform="matrix(1.25,0,0,1.25,-364.25006,110.75)" />
  <g
     id="layer2"
     style="display:inline;stroke-width:0.8"
     transform="matrix(1.25,0,0,1.25,-62.999809,-348)" />
  <g
     id="layer4"
     style="display:inline;stroke-width:0.8"
     transform="matrix(1.25,0,0,1.25,-62.999809,-348)" />
  <g
     id="g1812"
     style="display:inline;stroke-width:0.8"
     transform="matrix(1.25,0,0,1.25,-62.999809,-348)" />
  <g
     id="g6217"
     style="display:inline;stroke-width:0.8"
     transform="matrix(1.25,0,0,1.25,-62.999809,-348)" />
  <g
     id="layer3"
     style="display:inline;stroke-width:0.8"
     transform="matrix(1.25,0,0,1.25,-62.999809,-348)" />
  <g
     id="g1833"
     style="display:inline;stroke-width:0.8"
     transform="matrix(1.25,0,0,1.25,-62.999809,-348)" />
  <g
     id="layer1"
     style="display:inline;stroke-width:0.8"
     transform="matrix(1.25,0,0,1.25,-62.999809,-348)">
    <path
       d="m 59.80469,283 c -0.53643,0 -0.80469,1.5e-4 -0.80469,0.625 v 0.75 c 0,0.62485 0.26826,0.625 0.80469,0.625 h 0.39062 c 0.53643,0 0.80469,-1.5e-4 0.80469,-0.625 v -0.75 c 0,-0.60253 -0.26826,-0.625 -0.80469,-0.625 z"
       id="path4773"
       style="color:#000000;display:inline;overflow:visible;visibility:visible;opacity:1;fill:#808080;fill-opacity:1;fill-rule:nonzero;stroke:none;stroke-width:8;marker:none;enable-background:accumulate" />
    <path
       d="m 59.80469,287 c -0.53643,0 -0.80469,1.5e-4 -0.80469,0.625 v 0.75 c 0,0.62485 0.26826,0.625 0.80469,0.625 h 0.39062 c 0.53643,0 0.80469,-1.5e-4 0.80469,-0.625 v -0.75 c 0,-0.60253 -0.26826,-0.625 -0.80469,-0.625 z"
       id="path4767"
       style="color:#000000;display:inline;overflow:visible;visibility:visible;opacity:1;fill:#808080;fill-opacity:1;fill-rule:nonzero;stroke:none;stroke-width:8;marker:none;enable-background:accumulate" />
    <path
       d="m 59.80469,291 c -0.53643,0 -0.80469,1.5e-4 -0.80469,0.625 v 0.75 c 0,0.62485 0.26826,0.625 0.80469,0.625 h 0.39062 c 0.53643,0 0.80469,-1.5e-4 0.80469,-0.625 v -0.75 c 0,-0.60253 -0.26826,-0.625 -0.80469,-0.625 z"
       id="path4761"
       style="color:#000000;display:inline;overflow:visible;visibility:visible;opacity:1;fill:#808080;fill-opacity:1;fill-rule:nonzero;stroke:none;stroke-width:8;marker:none;enable-background:accumulate" />
  </g>
</svg>

<?xml version='1.0' encoding='UTF-8' standalone='no'?>
<svg xmlns:cc='http://creativecommons.org/ns#' xmlns:dc='http://purl.org/dc/elements/1.1/' height='16' id='svg7384' xmlns:osb='http://www.openswatchbook.org/uri/2009/osb' xmlns:rdf='http://www.w3.org/1999/02/22-rdf-syntax-ns#' xmlns:svg='http://www.w3.org/2000/svg' version='1.1' width='16' xmlns='http://www.w3.org/2000/svg'>
  <metadata id='metadata20854'>
    <rdf:RDF>
      <cc:Work rdf:about=''>
        <dc:title/>
        <dc:format>image/svg+xml</dc:format>
        <dc:type rdf:resource='http://purl.org/dc/dcmitype/StillImage'/>
      </cc:Work>
    </rdf:RDF>
  </metadata>
  <defs id='defs7386'>
    <linearGradient id='linearGradient5606' osb:paint='solid'>
      <stop id='stop5608' offset='0' style='stop-color:#000000;stop-opacity:1;'/>
    </linearGradient>
    <linearGradient id='linearGradient4526' osb:paint='solid'>
      <stop id='stop4528' offset='0' style='stop-color:#ffffff;stop-opacity:1;'/>
    </linearGradient>
    <linearGradient id='linearGradient3600-4' osb:paint='gradient'>
      <stop id='stop3602-7' offset='0' style='stop-color:#f4f4f4;stop-opacity:1'/>
      <stop id='stop3604-6' offset='1' style='stop-color:#dbdbdb;stop-opacity:1'/>
    </linearGradient>
  </defs>
  <g id='layer9' label='status' style='display:inline' transform='translate(-293.00005,87)'/>
  <g id='layer2' style='display:inline' transform='translate(-51.999847,-280)'/>
  <g id='layer4' style='display:inline' transform='translate(-51.999847,-280)'/>
  <g id='g1812' style='display:inline' transform='translate(-51.999847,-280)'/>
  <g id='g6217' style='display:inline' transform='translate(-51.999847,-280)'/>
  <g id='layer3' style='display:inline' transform='translate(-51.999847,-280)'/>
  <g id='g1833' style='display:inline' transform='translate(-51.999847,-280)'/>
  <g id='layer1' style='display:inline' transform='translate(-51.999847,-280)'>
    
    <path d='M 59.80469,283 C 59.26826,283 59,283.00015 59,283.625 v 0.75 c 0,0.62485 0.26826,0.625 0.80469,0.625 h 0.39062 C 60.73174,285 61,284.99985 61,284.375 v -0.75 C 61,283.02247 60.73174,283 60.19531,283 Z' id='path4773' style='color:#000000;display:inline;overflow:visible;visibility:visible;opacity:1;fill:#808080;fill-opacity:1;fill-rule:nonzero;stroke:none;stroke-width:10;marker:none;enable-background:accumulate'/>
    <path d='M 59.80469,287 C 59.26826,287 59,287.00015 59,287.625 v 0.75 c 0,0.62485 0.26826,0.625 0.80469,0.625 h 0.39062 C 60.73174,289 61,288.99985 61,288.375 v -0.75 C 61,287.02247 60.73174,287 60.19531,287 Z' id='path4767' style='color:#000000;display:inline;overflow:visible;visibility:visible;opacity:1;fill:#808080;fill-opacity:1;fill-rule:nonzero;stroke:none;stroke-width:10;marker:none;enable-background:accumulate'/>
    <path d='M 59.80469,291 C 59.26826,291 59,291.00015 59,291.625 v 0.75 c 0,0.62485 0.26826,0.625 0.80469,0.625 h 0.39062 C 60.73174,293 61,292.99985 61,292.375 v -0.75 C 61,291.02247 60.73174,291 60.19531,291 Z' id='path4761' style='color:#000000;display:inline;overflow:visible;visibility:visible;opacity:1;fill:#808080;fill-opacity:1;fill-rule:nonzero;stroke:none;stroke-width:10;marker:none;enable-background:accumulate'/>
  </g>
</svg>
